X:56
T:True Courage. TJD.56
M:3/8
L:1/8
Q:1/4=60
S:T.J.Dixon MS2, Lincolnshire, early 19thC
R:Song
C:(Charles Dibdin)
A:Lincolnshire, Holton le Moor
Z:vmp.R.Greig2010
K:G
G/A/|Bdd|cee|e/d/c/B/ A/G/|FAA|BGG|GEE|AFF|!
G2(G/A/)|Bdd|cee|e/d/c/B/ A/G/|FAA|dBB|gee|^cAc|!
d2d|gfe|e/d/c/B/ A/G/|GFG|AFE|gfe|e/d/c/B/ A/G/|!
GFG|BAD|G>AB|DGB|A>Bc|DAc|B d/e/f/|gdc|!
BAG|FED|Cee|e2C|B,dd|d2(d/>d/)|gBd|dcB|AGF|G3:|

